X:108
T:The Greencastle
R:hornpipe
M:4/4
L:1/8
K:Gmaj
BGDG BGD2 | ~g2fg egd2 | BGDG Bdef | gdBG ~A2 D2 |
BGDG B/c/d ef | gBfB eg d2 | BGBd ecAF |1 GBAF G2 z2 :|2 GBAF G2 z a ||
bagf efga | bge^c dcdg | b2 ag eg ~g2 | afd^c d2 z2 |
B/c/d gd BGDB | =cBAG FA D2 | ~g2 bg ecAF |1 GBAF G2 z a :|2 GBAF G4 ||

